icon/lg/whatsapp-icon.svg

<?xml version="1.0" encoding="UTF-8"?>
<svg viewBox="0 0 256 258" version="1.1" xmlns="http://www.w3.org/2000/svg" preserveAspectRatio="xMidYMid" height="1em" width="1em">
  <defs>
    <linearGradient x1="49.9999726%" y1="100.000225%" x2="49.9999726%" y2="4.85578831e-05%" id="whatsappLinearGradient-1">
      <stop stop-color="#1FAF38" offset="0%"/>
      <stop stop-color="#60D669" offset="100%"/>
    </linearGradient>
    <linearGradient x1="50.0000414%" y1="100.000108%" x2="50.0000414%" y2="-0.000129944756%" id="whatsappLinearGradient-2">
      <stop stop-color="#F9F9F9" offset="0%"/>
      <stop stop-color="#FFFFFF" offset="100%"/>
    </linearGradient>
  </defs>
  <g>
    <path d="M5.46329987,127.456258 C5.45681909,149.133181 11.1210232,170.299417 21.890788,188.954998 L21.890788,188.954998 L4.43285541,252.697385 L69.6645263,235.593304 C87.6357369,245.388359 107.871333,250.558727 128.464668,250.563912 L128.464668,250.563912 L128.519107,250.563912 C196.334018,250.563912 251.537325,195.380046 251.565851,127.55347 L251.565851,127.55347 C251.578802,94.6855323 238.790922,63.7799755 215.557316,40.5282231 L215.557316,40.5282231 C192.327598,17.2777669 161.43241,4.46655548 128.513922,4.45229776 L128.513922,4.45229776 C60.6912344,4.45229776 5.49181531,59.6322745 5.46329987,127.456258" fill="url(#whatsappLinearGradient-1)"/>
    <path d="M1.07062531,127.416078 C1.06284837,149.873286 6.93054909,171.796478 18.0839762,191.11958 L18.0839762,191.11958 L0,257.147091 L67.5712334,239.429927 C86.1892261,249.581425 107.15067,254.933255 128.481518,254.941032 L128.481518,254.941032 L128.535957,254.941032 C198.783754,254.941032 255.970181,197.772751 256,127.518474 L256,127.518474 C256.011658,93.4697375 242.763642,61.4533745 218.700495,37.3681934 L218.700495,37.3681934 C194.63346,13.2856047 162.632651,0.0142577221 128.535957,0 L128.535957,0 C58.2751986,0 1.09914076,57.1592078 1.07062531,127.416078 L1.07062531,127.416078 Z M41.3098055,187.792346 L38.7874848,183.787222 C28.1810358,166.922929 22.5829356,147.435216 22.5907045,127.423855 L22.5907045,127.423855 C22.6140434,69.0294095 70.1376234,21.5213834 128.576138,21.5213834 L128.576138,21.5213834 C156.875124,21.5330488 183.472256,32.5646372 203.47584,52.5811829 L203.47584,52.5811829 C223.479424,72.5990247 234.486386,99.2091187 234.478613,127.510697 L234.478613,127.510697 C234.452686,185.906438 186.92781,233.420945 128.535957,233.420945 L128.535957,233.420945 L128.49448,233.420945 C109.481159,233.410576 90.8346512,228.305015 74.571775,218.656426 L74.571775,218.656426 L70.7014515,216.360933 L30.6035524,226.874058 L41.3098055,187.792346 Z" fill="url(#whatsappLinearGradient-2)"/>
    <path d="M96.6782434,74.1484502 C94.2920192,68.8445776 91.781364,68.7382928 89.5117939,68.6449695 C87.6544015,68.565904 85.5300009,68.5710189 83.4081926,68.5710189 C81.2837921,68.5710189 77.8334233,69.369521 74.9157749,72.5554738 C71.9955342,75.7427228 63.7675324,83.4470773 63.7675324,99.1163139 C63.7675324,114.786847 75.181487,129.928547 76.7718711,132.05554 C78.3648475,134.178645 98.8052363,167.362845 131.176746,180.128691 C158.081068,190.737732 163.556033,188.627589 169.395218,188.096165 C175.234404,187.566037 188.238742,180.394403 190.891975,172.957057 C193.546503,165.521006 193.546503,159.146509 192.750663,157.815356 C191.954823,156.488091 189.830423,155.690955 186.645766,154.099275 C183.459813,152.506298 167.802242,144.800648 164.883297,143.737799 C161.963057,142.676247 159.839952,142.146119 157.715552,145.334664 C155.592447,148.519321 149.492734,155.690955 147.634046,157.815356 C145.776654,159.943645 143.917965,160.209357 140.733309,158.61638 C137.547356,157.018219 127.289573,153.658582 115.121255,142.809751 C105.652831,134.367884 99.2614834,123.942897 97.4027949,120.754351 C95.5454026,117.569695 97.204483,115.84451 98.8013479,114.256719 C100.232305,112.82965 101.987301,110.538045 103.580277,108.679357 C105.169365,106.819372 105.699493,105.492108 106.761045,103.367707 C107.823894,101.242011 107.292469,99.382026 106.496629,97.7890496 C105.699493,96.1960732 99.5103455,80.4464749 96.6782434,74.1484502" fill="#FFFFFF"/>
  </g>
</svg>

<svg width="256" height="258" xmlns="http://www.w3.org/2000/svg" preserveAspectRatio="xMidYMid"><defs><linearGradient x1="50%" y1="100%" x2="50%" y2="0%" id="a"><stop stop-color="#1FAF38" offset="0%"/><stop stop-color="#60D669" offset="100%"/></linearGradient><linearGradient x1="50%" y1="100%" x2="50%" y2="0%" id="b"><stop stop-color="#F9F9F9" offset="0%"/><stop stop-color="#FFF" offset="100%"/></linearGradient></defs><path d="M5.463 127.456c-.006 21.677 5.658 42.843 16.428 61.499L4.433 252.697l65.232-17.104a122.994 122.994 0 0 0 58.8 14.97h.054c67.815 0 123.018-55.183 123.047-123.01.013-32.867-12.775-63.773-36.009-87.025-23.23-23.25-54.125-36.061-87.043-36.076-67.823 0-123.022 55.18-123.05 123.004" fill="url(#a)"/><path d="M1.07 127.416c-.007 22.457 5.86 44.38 17.014 63.704L0 257.147l67.571-17.717c18.618 10.151 39.58 15.503 60.91 15.511h.055c70.248 0 127.434-57.168 127.464-127.423.012-34.048-13.236-66.065-37.3-90.15C194.633 13.286 162.633.014 128.536 0 58.276 0 1.099 57.16 1.071 127.416Zm40.24 60.376-2.523-4.005c-10.606-16.864-16.204-36.352-16.196-56.363C22.614 69.029 70.138 21.52 128.576 21.52c28.3.012 54.896 11.044 74.9 31.06 20.003 20.018 31.01 46.628 31.003 74.93-.026 58.395-47.551 105.91-105.943 105.91h-.042c-19.013-.01-37.66-5.116-53.922-14.765l-3.87-2.295-40.098 10.513 10.706-39.082Z" fill="url(#b)"/><path d="M96.678 74.148c-2.386-5.303-4.897-5.41-7.166-5.503-1.858-.08-3.982-.074-6.104-.074-2.124 0-5.575.799-8.492 3.984-2.92 3.188-11.148 10.892-11.148 26.561 0 15.67 11.413 30.813 13.004 32.94 1.593 2.123 22.033 35.307 54.405 48.073 26.904 10.609 32.379 8.499 38.218 7.967 5.84-.53 18.844-7.702 21.497-15.139 2.655-7.436 2.655-13.81 1.859-15.142-.796-1.327-2.92-2.124-6.105-3.716-3.186-1.593-18.844-9.298-21.763-10.361-2.92-1.062-5.043-1.592-7.167 1.597-2.124 3.184-8.223 10.356-10.082 12.48-1.857 2.129-3.716 2.394-6.9.801-3.187-1.598-13.444-4.957-25.613-15.806-9.468-8.442-15.86-18.867-17.718-22.056-1.858-3.184-.199-4.91 1.398-6.497 1.431-1.427 3.186-3.719 4.78-5.578 1.588-1.86 2.118-3.187 3.18-5.311 1.063-2.126.531-3.986-.264-5.579-.798-1.593-6.987-17.343-9.819-23.64" fill="#FFF"/></svg>
